icons/1_Primary/Arch Linux.svg

<svg width="1024" height="1024" fill="none" xmlns="http://www.w3.org/2000/svg"><g clip-path="url(#a)"><path d="M512 1024c282.77 0 512-229.23 512-512S794.77 0 512 0 0 229.23 0 512s229.23 512 512 512Z" fill="#9ABEFF"/><path d="M512 236c-22.79 55.87-36.53 92.42-61.91 146.63 15.56 16.49 34.65 35.69 65.66 57.38-33.34-13.72-56.08-27.49-73.07-41.78C410.16 466 359.29 562.5 256 748c81.14-46.84 144-75.73 202.66-86.75a148.568 148.568 0 0 1-3.85-34.76l.1-2.6c1.29-52 28.33-92 60.37-89.25s56.94 47.08 55.65 99.07a146.902 146.902 0 0 1-3.27 27.92C625.68 673 687.91 701.79 768 748c-15.78-29.06-29.87-55.25-43.32-80.2-21.19-16.42-43.29-37.8-88.38-60.94 31 8.05 53.18 17.34 70.47 27.73C569.94 379.92 558.86 346.08 512 236Z" fill="#fff"/></g><defs><clipPath id="a"><path fill="#fff" d="M0 0h1024v1024H0z"/></clipPath></defs></svg>

<svg width="1024" height="1024" viewBox="0 0 1024 1024" fill="none" xmlns="http://www.w3.org/2000/svg">
<g clip-path="url(#clip0_2_1506)">
<path d="M512 1024C794.77 1024 1024 794.77 1024 512C1024 229.23 794.77 0 512 0C229.23 0 0 229.23 0 512C0 794.77 229.23 1024 512 1024Z" fill="#9ABEFF"/>
<path d="M512 236C489.21 291.87 475.47 328.42 450.09 382.63C465.65 399.12 484.74 418.32 515.75 440.01C482.41 426.29 459.67 412.52 442.68 398.23C410.16 466 359.29 562.5 256 748C337.14 701.16 400 672.27 458.66 661.25C456.013 649.855 454.72 638.188 454.81 626.49L454.91 623.89C456.2 571.89 483.24 531.89 515.28 534.64C547.32 537.39 572.22 581.72 570.93 633.71C570.735 643.1 569.64 652.449 567.66 661.63C625.68 673 687.91 701.79 768 748C752.22 718.94 738.13 692.75 724.68 667.8C703.49 651.38 681.39 630 636.3 606.86C667.3 614.91 689.48 624.2 706.77 634.59C569.94 379.92 558.86 346.08 512 236Z" fill="white"/>
</g>
<defs>
<clipPath id="clip0_2_1506">
<rect width="1024" height="1024" fill="white"/>
</clipPath>
</defs>
</svg>
